svg/fluentui-system-icons/ic_fluent_speaker_0_28_regular.svg

<svg width="28" height="28" viewBox="0 0 28 28" fill="none" xmlns="http://www.w3.org/2000/svg">
<path d="M16.5 4.814C16.5 3.71962 15.1932 3.1536 14.395 3.90219L9.45826 8.53158C9.13388 8.83576 8.70587 9.00505 8.26119 9.00505H5.25C3.45508 9.00505 2 10.4601 2 12.255V15.747C2 17.542 3.45507 18.997 5.25 18.997H8.26174C8.70619 18.997 9.134 19.1662 9.45832 19.4701L14.3953 24.0962C15.1937 24.8443 16.5 24.2782 16.5 23.1841V4.814ZM10.4843 9.62575L15 5.39117V22.6072L10.484 18.3755C9.88165 17.8111 9.08715 17.497 8.26174 17.497H5.25C4.2835 17.497 3.5 16.7135 3.5 15.747V12.255C3.5 11.2885 4.2835 10.505 5.25 10.505H8.26119C9.08703 10.505 9.8819 10.1907 10.4843 9.62575Z" fill="#212121"/>
</svg>

<svg xmlns="http://www.w3.org/2000/svg" width="28" height="28"><path d="M16.5 4.814c0-1.094-1.307-1.66-2.105-.912l-4.937 4.63a1.75 1.75 0 0 1-1.197.473H5.25A3.25 3.25 0 0 0 2 12.255v3.492a3.25 3.25 0 0 0 3.25 3.25h3.012c.444 0 .872.17 1.196.473l4.937 4.626c.799.748 2.105.182 2.105-.912V4.814Zm-6.016 4.812L15 5.39v17.216l-4.516-4.232a3.25 3.25 0 0 0-2.222-.878H5.25a1.75 1.75 0 0 1-1.75-1.75v-3.492c0-.966.784-1.75 1.75-1.75h3.011a3.25 3.25 0 0 0 2.223-.88Z"/></svg>
